X: 11909
T: Emmet The Piper
R: jig
M: 6/8
K: Dmajor
cAF d3|cAF EA^G|(A3 A)BA|ABc AFE|
cAF def|edc Bcd|eab gfe|fed ecA:|
def a3|afb afd|Adf geg|fed ecA|
def a3|afb afa|geg fed|efd cBA:|
d3 BfB|Adf gfe|d3 BfB|AdF dBA|
d3 BfB|Adf gfe|fga baf|gfe fdB:|

